X: 28897
T: Myxamatosis
R: slip jig
M: 9/8
K: Amixolydian
|:F^Ac cf gf|edc Bc GF|EBE EB Ed|eEB EG FE|
F^Ac cf gf|edc Bc g^a|bg^a bf gf|eEd c^A GF:|
|:cFc fF dc|Fc^A dc BA|GEB c^A BE|eEd c^A GF|
[1 cFc fF dc|Fc^A dc ba|geb c'^a bd|eEd c^A GF:|
[2 f^ac' d'b c'a|bfd ge fd|edc ^Ac AG|eEG F2- F2||
|:EEF GE GF|c^Ac BA GF|EFE GE GF|DB,D C^A, B,A,|
EEF GE GF|c^Ac BA GF|EFE GE GF|EGE F2- F2:|

